svgs/light/pie.svg

<svg xmlns="http://www.w3.org/2000/svg" viewBox="0 0 576 512"><!--! Font Awesome Pro 6.3.0 by @fontawesome - https://fontawesome.com License - https://fontawesome.com/license (Commercial License) Copyright 2023 Fonticons, Inc. --><path d="M527.2 202.2C487.9 109.6 393 48 288 48c-105.1 0-200 61.55-239.2 154.2C21.53 204.2 0 226.2 0 253C0 281.1 23.75 304 52.94 304c36.97 0 58.94-15.62 70.81-24.08C131.4 274.4 131.1 274.2 139.3 280.1C151 288.5 172.9 304 209.8 304c36.88 0 58.84-15.59 70.88-24.12c7.551-5.402 6.971-5.812 15.53 .4531C308.8 289.2 329.8 304 366.5 304c36.88 0 58.81-15.55 70.94-24.14c8.211-5.988 7.902-5.01 14.94 .0625C464.1 288.3 485.8 304 523.1 304C552.3 304 576 281.1 576 253C576 226.2 554.5 204.2 527.2 202.2zM523.1 272c-26.94 0-42-10.86-52.03-18.08C462.4 247.7 457.2 244 444.9 244c-12.62 0-17.78 3.766-26.31 10C408.5 261.2 393.2 272 366.5 272c-26.53 0-41.16-10.3-51.59-17.67C305.3 247.4 300.2 244 288.3 244c-12.06 0-17.34 3.438-26.25 9.938C251.8 261.1 236.5 272 209.8 272c-26.72 0-41.94-10.81-52.19-18.09C149 247.7 143.8 244 131.5 244c-12.56 0-17.78 3.75-26.34 9.906C95 261.1 79.69 272 52.94 272C41.41 272 32 263.5 32 253S41.41 234 52.94 234c9.805 0 18.65-2.113 22.12-11.39C107.1 137.3 192.7 80 288 80c95.19 0 180.8 57.3 212.9 142.6C504.4 231.8 513.3 234 523.1 234C534.6 234 544 242.5 544 253S534.6 272 523.1 272zM501.1 320.8c-1.652-.5352-3.305-.7969-4.975-.7969c-6.891 0-12.99 4.379-15.18 10.9l-22.17 75c-1.943 5.947-7.645 10.09-14.12 10.09H131.5c-6.486 0-12.25-4.189-14.34-10.42l-21.99-74.39C92.9 324.4 86.82 320 79.95 320c-1.676 0-3.34 .2617-4.947 .7773c-4.129 1.377-7.408 4.227-9.314 8.057c-1.908 3.826-2.213 8.17-.8594 12.23l21.99 74.41C93.36 435 111.3 448 131.5 448h313.1c20.32 0 38.2-12.1 44.48-32.34l22.14-74.86c1.271-3.795 .9668-8.139-.9414-11.96C508.4 325 505.1 322.2 501.1 320.8zM288 128C279.2 128 272 135.2 272 144v32C272 184.8 279.2 192 288 192s16-7.156 16-16v-32C304 135.2 296.8 128 288 128zM199.1 129.7c-7.906-3.875-17.47-.6953-21.44 7.211l-16 32c-3.938 7.906-.7656 17.49 7.141 21.45C171.2 191.5 173.6 192 176 192c5.844 0 11.45-3.258 14.27-8.867l16-32C210.2 143.2 207 133.6 199.1 129.7zM398.3 136.9c-3.969-7.906-13.5-11.05-21.44-7.148c-7.906 3.953-11.06 13.51-7.125 21.41l16 32C388.5 188.7 394.2 192 400 192c2.406 0 4.828-.5781 7.141-1.719c7.906-3.953 11.09-13.51 7.156-21.41L398.3 136.9z"/></svg>

<svg xmlns="http://www.w3.org/2000/svg" viewBox="0 0 576 512"><!-- Font Awesome Pro 6.0.0-alpha2 by @fontawesome - https://fontawesome.com License - https://fontawesome.com/license (Commercial License) --><path d="M527.188 202.156C487.875 109.562 393.031 48 288 48C182.875 48 88 109.547 48.781 202.156C21.531 204.203 0 226.219 0 253C0 281.125 23.75 304 52.938 304C89.906 304 111.875 288.375 123.75 279.922C131.426 274.424 131.096 274.221 139.281 280.109C151.031 288.453 172.906 304 209.844 304C246.719 304 268.688 288.406 280.719 279.875C288.27 274.473 287.689 274.063 296.25 280.328C308.812 289.188 329.812 304 366.5 304C403.375 304 425.312 288.453 437.438 279.859C445.648 273.871 445.34 274.85 452.375 279.922C464.062 288.344 485.812 304 523.062 304C552.25 304 576 281.125 576 253C576 226.219 554.469 204.188 527.188 202.156ZM523.062 272C496.125 272 481.062 261.141 471.031 253.922C462.375 247.734 457.156 244 444.906 244C432.281 244 427.125 247.766 418.594 254C408.469 261.172 393.188 272 366.5 272C339.969 272 325.344 261.703 314.906 254.328C305.344 247.359 300.219 244 288.25 244C276.188 244 270.906 247.438 262 253.938C251.844 261.125 236.531 272 209.844 272C183.125 272 167.906 261.188 157.656 253.906C149.031 247.734 143.812 244 131.469 244C118.906 244 113.687 247.75 105.125 253.906C95 261.109 79.688 272 52.938 272C41.406 272 32 263.469 32 253S41.406 234 52.938 234C62.742 234 71.588 231.887 75.062 222.609C107.094 137.312 192.688 80 288 80C383.188 80 468.75 137.297 500.906 222.578C504.361 231.807 513.266 234 523.062 234C534.594 234 544 242.531 544 253S534.594 272 523.062 272ZM501.059 320.805C499.406 320.27 497.754 320.008 496.084 320.008C489.193 320.008 483.094 324.387 480.904 330.906L458.738 405.91C456.795 411.857 451.094 415.998 444.615 415.998H131.492C125.006 415.998 119.246 411.809 117.156 405.574L95.166 331.184C92.898 324.387 86.816 320 79.953 320C78.277 320 76.613 320.262 75.006 320.777C70.877 322.154 67.598 325.004 65.691 328.834C63.783 332.66 63.479 337.004 64.832 341.062L86.826 415.477C93.355 435.037 111.271 448 131.492 448H444.615C464.939 448 482.814 435.004 489.094 415.662L511.232 340.799C512.504 337.004 512.199 332.66 510.291 328.834C508.385 325.004 505.105 322.154 501.059 320.805ZM288 128C279.156 128 272 135.156 272 144V176C272 184.844 279.156 192 288 192S304 184.844 304 176V144C304 135.156 296.844 128 288 128ZM199.156 129.688C191.25 125.812 181.656 128.938 177.688 136.844L161.688 168.844C157.75 176.75 160.938 186.359 168.844 190.312C171.156 191.453 173.594 192 176 192C181.844 192 187.5 188.766 190.312 183.156L206.312 151.156C210.25 143.25 207.062 133.641 199.156 129.688ZM398.312 136.844C394.344 128.938 384.781 125.781 376.844 129.688C368.938 133.641 365.75 143.25 369.688 151.156L385.688 183.156C388.5 188.766 394.156 192 400 192C402.406 192 404.844 191.453 407.156 190.312C415.062 186.359 418.25 176.75 414.312 168.844L398.312 136.844Z"/></svg>
